public/assets/fluit.svg

<svg width="210" height="274" viewBox="0 0 210 274" fill="none" xmlns="http://www.w3.org/2000/svg">
<path d="M13.1328 10.1411L210 22.4922L201.479 266.763L21.3675 273.982L13.1328 10.1411Z" fill="#2E5A9C"/>
<path d="M0.914062 0.461426L197.782 12.8125L189.261 261.207L9.1487 268.427L0.914062 0.461426Z" fill="#F87980"/>
<path d="M28.7423 40.234C22.9643 40.234 19.6973 43.609 19.6973 49.414C19.6973 55.165 22.5863 58.297 28.4453 58.297C29.6333 58.297 30.9293 58.189 32.1983 57.784L32.6303 53.518L32.1983 53.248C31.2263 53.599 29.8493 53.815 28.8773 53.815C26.5013 53.815 25.4213 52.276 25.4213 48.793C25.4213 45.796 26.3663 44.635 28.5263 44.635C29.5523 44.635 30.9023 44.959 31.8473 45.472L32.1983 45.256L33.1163 40.963C31.8203 40.504 30.3623 40.234 28.7423 40.234ZM45.3114 53.95L45.0144 53.572H39.8574L39.8034 52.33L40.1004 40.531H34.5924L34.8624 52.87L34.5924 58H44.9874L45.3114 53.95ZM62.2381 58L57.4591 40.531H50.9251L45.6331 58H50.9251L51.3841 55.084L53.5981 54.976L56.2441 55.03L56.2711 55.111L56.7571 58H62.2381ZM55.4341 51.088L53.9221 51.115L52.4101 51.088L53.9221 45.364H54.2461L55.4341 51.088ZM75.6288 51.115C77.4648 49.819 78.5448 47.956 78.5448 45.904C78.5448 42.421 76.3308 40.504 72.4158 40.504L64.1268 40.531L64.3968 52.87L64.1268 58H69.5538L69.3648 52.789H71.1738C71.9028 54.517 72.7128 56.218 73.4958 57.892L74.0088 58.324C75.8718 58.216 77.6808 57.865 79.4358 57.325L79.5168 56.731C78.1398 54.895 76.8438 53.005 75.6288 51.115ZM72.8478 46.444C72.8478 47.74 72.4158 48.496 71.3898 48.955L69.4188 48.847L69.5268 44.338L70.4988 44.257C72.1458 44.338 72.8478 44.986 72.8478 46.444ZM96.199 58L91.42 40.531H84.886L79.594 58H84.886L85.345 55.084L87.559 54.976L90.205 55.03L90.232 55.111L90.718 58H96.199ZM89.395 51.088L87.883 51.115L86.371 51.088L87.883 45.364H88.207L89.395 51.088ZM113.127 58L108.348 40.531H101.814L96.5218 58H101.814L102.273 55.084L104.487 54.976L107.133 55.03L107.16 55.111L107.646 58H113.127ZM106.323 51.088L104.811 51.115L103.299 51.088L104.811 45.364H105.135L106.323 51.088ZM126.034 40.909L125.737 40.531H112.696L112.399 44.473L112.723 44.851L116.314 44.689H116.665L116.8 52.87L116.53 58H121.93L121.714 52.33L121.849 44.689H122.173L125.737 44.851L126.034 40.909ZM139.306 51.115C141.142 49.819 142.222 47.956 142.222 45.904C142.222 42.421 140.008 40.504 136.093 40.504L127.804 40.531L128.074 52.87L127.804 58H133.231L133.042 52.789H134.851C135.58 54.517 136.39 56.218 137.173 57.892L137.686 58.324C139.549 58.216 141.358 57.865 143.113 57.325L143.194 56.731C141.817 54.895 140.521 53.005 139.306 51.115ZM136.525 46.444C136.525 47.74 136.093 48.496 135.067 48.955L133.096 48.847L133.204 44.338L134.176 44.257C135.823 44.338 136.525 44.986 136.525 46.444ZM152.16 40.207C146.598 40.207 143.412 43.609 143.412 49.576C143.412 55.138 146.301 58.324 151.377 58.324C156.939 58.324 160.125 54.868 160.125 48.82C160.125 43.339 157.236 40.207 152.16 40.207ZM151.674 44.527C153.861 44.527 154.455 45.634 154.455 49.981C154.455 53.437 153.888 54.328 151.863 54.328C149.676 54.328 149.082 53.221 149.082 48.847C149.082 45.418 149.649 44.527 151.674 44.527ZM177.846 52.303L178.143 40.423L173.175 40.72L173.337 49.873H173.013L168.099 40.531H162.213L162.483 52.87L162.213 58H167.127L166.911 51.682L166.938 48.658H167.262L172.176 58H178.062L177.846 52.303Z" fill="#2C1E25"/>
<path d="M49.7838 224.912C51.8638 224.912 53.5668 225.38 54.8928 226.316C56.2188 227.226 56.8818 228.513 56.8818 230.177C56.8818 231.243 56.5568 232.374 55.9068 233.57C55.2828 234.74 54.2168 236.079 52.7088 237.587L50.9928 239.303L51.1098 239.498H54.1128L57.8958 239.108L58.2858 239.576L57.4278 245.582L51.8118 245.27H42.8418L41.4378 245.387L41.0868 245.114V240.512L46.0788 236.222C47.1448 235.26 47.9378 234.467 48.4578 233.843C49.0038 233.219 49.2768 232.686 49.2768 232.244C49.2768 231.646 48.8218 231.347 47.9118 231.347C47.2098 231.347 46.4168 231.529 45.5328 231.893C44.6488 232.231 43.8038 232.699 42.9978 233.297H42.1788L40.8918 227.369C44.1158 225.731 47.0798 224.912 49.7838 224.912ZM74.3928 226.043L74.2758 230.567H76.9278L81.4518 230.45L81.8808 230.996L81.4128 236.69L76.3818 236.573H74.1198V237.08L74.4318 245.27H66.5928L66.9828 237.86L66.5928 220.037H83.4408L83.8698 220.583L83.3628 226.277L77.1228 226.043H74.3928ZM96.3373 226.823C96.6753 226.823 96.9743 226.849 97.2343 226.901V233.726L96.4933 233.96C96.1553 233.752 95.6873 233.648 95.0893 233.648C94.5173 233.648 93.9063 233.778 93.2563 234.038C92.6323 234.298 92.0473 234.662 91.5013 235.13V237.08L91.8133 245.27H84.2083L84.5593 237.86L84.2863 227.291L91.5013 226.784V230.216H91.8523C92.9703 227.954 94.4653 226.823 96.3373 226.823ZM106.993 226.394C109.385 226.394 111.231 226.888 112.531 227.876C113.831 228.838 114.481 230.229 114.481 232.049C114.481 232.569 114.429 233.947 114.325 236.183C114.221 238.159 114.169 239.264 114.169 239.498C114.169 239.784 114.208 239.992 114.286 240.122C114.39 240.252 114.533 240.317 114.715 240.317C114.897 240.317 115.118 240.278 115.378 240.2L115.846 240.59L115.183 244.49C114.221 245.166 113.012 245.556 111.556 245.66C110.802 245.608 110.126 245.348 109.528 244.88C108.956 244.412 108.514 243.749 108.202 242.891H107.929C106.785 244.217 105.485 245.153 104.029 245.699C102.053 245.673 100.467 245.127 99.2706 244.061C98.1006 242.969 97.5156 241.487 97.5156 239.615C97.5156 236.729 99.0106 235.078 102.001 234.662L107.539 233.921V233.453C107.539 232.777 107.396 232.296 107.11 232.01C106.85 231.724 106.382 231.581 105.706 231.581C104.25 231.581 102.365 232.205 100.051 233.453L99.5826 233.141L98.7636 228.344C99.9596 227.72 101.273 227.239 102.703 226.901C104.159 226.563 105.589 226.394 106.993 226.394ZM105.316 237.548C104.952 237.6 104.679 237.743 104.497 237.977C104.341 238.185 104.263 238.51 104.263 238.952C104.263 239.992 104.744 240.512 105.706 240.512C106.33 240.512 106.941 240.304 107.539 239.888V237.236L105.316 237.548ZM128.674 245.27L129.064 234.974C129.064 233.388 128.453 232.595 127.231 232.595C126.633 232.595 126.022 232.777 125.398 233.141V237.08L125.71 245.27H118.105L118.456 237.86L118.183 227.291L125.398 226.784V229.514H125.671C127.023 228.162 128.544 227.2 130.234 226.628C132.184 226.628 133.666 227.07 134.68 227.954C135.72 228.838 136.214 230.112 136.162 231.776L136.006 237.08L136.279 245.27H128.674ZM153.632 235.013C154.854 237.509 156.505 240.512 158.585 244.022L158.546 244.802C156.856 245.14 154.477 245.452 151.409 245.738L150.629 245.348C149.095 242.54 147.795 239.641 146.729 236.651V237.08L147.041 245.27H139.436L139.787 237.86L139.514 218.399L147.08 217.892L146.768 234.584L149.732 229.046L150.551 226.862H158.312L153.632 235.013Z" fill="#2C1E25"/>
<g clip-path="url(#clip0)">
<path d="M48.9259 101.115L55.8219 93.2115L62.1098 88.259L66.7848 90.6402L74.6827 93.2583L81.3253 98.5596L87.4383 105.707L88.0468 106.574L90.2847 109.031L93.4049 112.167L94.8514 113.851L95.184 114.721L94.6354 115.004L124.409 146.153L127.463 147.679L127.941 149.146L129.609 150.137L136.708 155.157L141.379 157.17L144.079 159.806L146.305 165.069L145.831 167.696L131.246 182.64L125.128 182.668L120.026 175.416L114.075 166.426L112.534 164.559L111.482 165.078L109.598 161.421L77.5121 133.014L76.8771 133.758L70.6889 127.991L68.5088 126.5L67.9613 126.874L67.5367 126.006L56.9781 116.428L52.8732 107.968L48.9259 101.115Z" fill="#FFF1F0"/>
<path d="M67.5367 126.005L73.7389 117.787L82.0989 109.222L87.6621 105.198L88.2151 105.283L87.9947 106.068L81.3843 110.978L73.3445 119.402L68.4212 126.868L67.9181 127.104L67.5367 126.005Z" fill="#2C1E25"/>
<path d="M90.2858 109.031L91.8984 109.241L92.9203 110.057L93.1256 111.802L86.5219 117.265L82.6577 121.038L77.5291 126.758L74.412 131.442L72.6643 131.463L71.4073 130.237L71.4349 128.718L76.5079 122.217L80.5028 117.844L85.7788 112.904L90.2858 109.031Z" fill="#2C1E25"/>
<path d="M81.3562 127.493L91.5558 137.811L95.1192 139.562L99.2441 138.316L100.88 136.64L101.339 132.816L100.052 129.106L89.212 119.071L81.3562 127.493Z" fill="#2C1E25"/>
<path d="M83.1003 127.196L85.2984 130.159L91.9795 123.5L89.0523 121.098L83.1003 127.196Z" fill="#FFF1F0"/>
</g>
<g clip-path="url(#clip1)">
<path d="M119.865 80.8258L129.002 85.9778L135.125 91.1321L133.741 96.1925L132.777 104.457L128.931 112.036L123.169 119.47L122.444 120.241L120.492 122.931L118.052 126.621L116.696 128.379L115.911 128.881L115.523 128.401L91.0518 163.867L90.1753 167.167L88.8363 167.932L88.203 169.766L84.7253 177.735L83.6999 182.717L81.6663 185.895L76.9633 189.141L74.294 189.209L56.7059 177.954L55.4388 171.968L61.507 165.503L69.1049 157.854L70.6214 155.967L69.9003 155.042L73.0999 152.456L94.4178 115.281L93.5609 114.81L97.9547 107.582L98.9736 105.145L98.4958 104.684L99.2607 104.093L106.501 91.8129L113.954 86.0793L119.865 80.8258Z" fill="#FFF1F0"/>
<path d="M99.2605 104.093L108.564 108.502L118.646 114.953L123.713 119.586L123.741 120.145L122.928 120.088L116.781 114.609L106.903 108.443L98.5943 105.134L98.2612 104.689L99.2605 104.093Z" fill="#2C1E25"/>
<path d="M120.492 122.931L120.612 124.552L120.021 125.718L118.353 126.273L111.666 120.913L107.189 117.893L100.548 114.029L95.3297 111.926L94.9548 110.218L95.9015 108.739L97.394 108.458L104.789 112.109L109.88 115.136L115.786 119.301L120.492 122.931Z" fill="#2C1E25"/>
<path d="M100.602 117.926L92.5642 130.004L91.5716 133.848L93.6275 137.635L95.6 138.897L99.4375 138.573L102.81 136.561L110.441 123.913L100.602 117.926Z" fill="#2C1E25"/>
<path d="M101.247 119.574L98.7904 122.327L106.665 127.52L108.425 124.167L101.247 119.574Z" fill="#FFF1F0"/>
</g>
<path d="M4.94531 199.863L198.204 186.272V197.846L5.25747 211.084L4.94531 199.863Z" fill="#2E5A9C"/>
<path d="M18.4023 198.913L4.91406 199.862L5.07407 211.099L19.1328 210.135L18.4023 198.913Z" fill="#3F7AD3"/>
<defs>
<clipPath id="clip0">
<rect width="29.7929" height="116.439" fill="white" transform="translate(44.7812 104.524) rotate(-45.6965)"/>
</clipPath>
<clipPath id="clip1">
<rect width="29.7929" height="116.439" fill="white" transform="translate(115.688 77.4575) rotate(32.6164)"/>
</clipPath>
</defs>
</svg>

<svg width="210" height="274" fill="none" xmlns="http://www.w3.org/2000/svg"><path d="M13.133 10.141L210 22.492l-8.521 244.271-180.112 7.219-8.234-263.84z" fill="#2E5A9C"/><path d="M.914.461l196.868 12.351-8.521 248.395-180.112 7.22L.914.461z" fill="#F87980"/><path d="M28.742 40.234c-5.778 0-9.045 3.375-9.045 9.18 0 5.751 2.89 8.883 8.748 8.883 1.188 0 2.484-.108 3.753-.513l.432-4.266-.432-.27c-.972.351-2.349.567-3.32.567-2.377 0-3.457-1.539-3.457-5.022 0-2.997.945-4.158 3.105-4.158 1.026 0 2.376.324 3.321.837l.351-.216.918-4.293a13.026 13.026 0 00-4.374-.729zm16.57 13.716l-.298-.378h-5.157l-.054-1.242.297-11.799h-5.508l.27 12.339-.27 5.13h10.395l.324-4.05zM62.237 58L57.46 40.531h-6.534L45.633 58h5.292l.46-2.916 2.213-.108 2.646.054.027.081.486 2.889h5.481zm-6.804-6.912l-1.512.027-1.512-.027 1.512-5.724h.324l1.188 5.724zm20.195.027c1.836-1.296 2.916-3.159 2.916-5.211 0-3.483-2.214-5.4-6.13-5.4l-8.288.027.27 12.339-.27 5.13h5.427l-.19-5.211h1.81c.729 1.728 1.539 3.429 2.322 5.103l.513.432a22.922 22.922 0 005.427-.999l.08-.594a94.896 94.896 0 01-3.887-5.616zm-2.781-4.671c0 1.296-.432 2.052-1.458 2.511l-1.971-.108.108-4.509.972-.081c1.647.081 2.349.729 2.349 2.187zM96.199 58L91.42 40.531h-6.534L79.594 58h5.292l.459-2.916 2.214-.108 2.646.054.027.081.486 2.889h5.481zm-6.804-6.912l-1.512.027-1.512-.027 1.512-5.724h.324l1.188 5.724zM113.127 58l-4.779-17.469h-6.534L96.522 58h5.292l.459-2.916 2.214-.108 2.646.054.027.081.486 2.889h5.481zm-6.804-6.912l-1.512.027-1.512-.027 1.512-5.724h.324l1.188 5.724zm19.711-10.179l-.297-.378h-13.041l-.297 3.942.324.378 3.591-.162h.351l.135 8.181-.27 5.13h5.4l-.216-5.67.135-7.641h.324l3.564.162.297-3.942zm13.272 10.206c1.836-1.296 2.916-3.159 2.916-5.211 0-3.483-2.214-5.4-6.129-5.4l-8.289.027.27 12.339-.27 5.13h5.427l-.189-5.211h1.809c.729 1.728 1.539 3.429 2.322 5.103l.513.432a22.922 22.922 0 005.427-.999l.081-.594a94.896 94.896 0 01-3.888-5.616zm-2.781-4.671c0 1.296-.432 2.052-1.458 2.511l-1.971-.108.108-4.509.972-.081c1.647.081 2.349.729 2.349 2.187zm15.635-6.237c-5.562 0-8.748 3.402-8.748 9.369 0 5.562 2.889 8.748 7.965 8.748 5.562 0 8.748-3.456 8.748-9.504 0-5.481-2.889-8.613-7.965-8.613zm-.486 4.32c2.187 0 2.781 1.107 2.781 5.454 0 3.456-.567 4.347-2.592 4.347-2.187 0-2.781-1.107-2.781-5.481 0-3.429.567-4.32 2.592-4.32zm26.172 7.776l.297-11.88-4.968.297.162 9.153h-.324l-4.914-9.342h-5.886l.27 12.339-.27 5.13h4.914l-.216-6.318.027-3.024h.324L172.176 58h5.886l-.216-5.697zM49.784 224.912c2.08 0 3.783.468 5.109 1.404 1.326.91 1.989 2.197 1.989 3.861 0 1.066-.325 2.197-.975 3.393-.624 1.17-1.69 2.509-3.198 4.017l-1.716 1.716.117.195h3.003l3.783-.39.39.468-.858 6.006-5.616-.312h-8.97l-1.404.117-.351-.273v-4.602l4.992-4.29c1.066-.962 1.859-1.755 2.379-2.379.546-.624.819-1.157.819-1.599 0-.598-.455-.897-1.365-.897-.702 0-1.495.182-2.38.546a10.6 10.6 0 00-2.534 1.404h-.82l-1.286-5.928c3.224-1.638 6.188-2.457 8.892-2.457zm24.609 1.131l-.117 4.524h2.652l4.524-.117.429.546-.468 5.694-5.031-.117H74.12v.507l.312 8.19h-7.84l.39-7.41-.39-17.823h16.849l.429.546-.507 5.694-6.24-.234h-2.73zm21.944.78c.338 0 .637.026.897.078v6.825l-.74.234c-.339-.208-.807-.312-1.405-.312-.572 0-1.183.13-1.833.39a6.578 6.578 0 00-1.755 1.092v1.95l.312 8.19h-7.605l.351-7.41-.273-10.569 7.215-.507v3.432h.351c1.118-2.262 2.613-3.393 4.485-3.393zm10.656-.429c2.392 0 4.238.494 5.538 1.482 1.3.962 1.95 2.353 1.95 4.173 0 .52-.052 1.898-.156 4.134-.104 1.976-.156 3.081-.156 3.315 0 .286.039.494.117.624a.52.52 0 00.429.195c.182 0 .403-.039.663-.117l.468.39-.663 3.9c-.962.676-2.171 1.066-3.627 1.17a3.626 3.626 0 01-2.028-.78c-.572-.468-1.014-1.131-1.326-1.989h-.273c-1.144 1.326-2.444 2.262-3.9 2.808-1.976-.026-3.562-.572-4.758-1.638-1.17-1.092-1.755-2.574-1.755-4.446 0-2.886 1.495-4.537 4.485-4.953l5.538-.741v-.468c0-.676-.143-1.157-.429-1.443-.26-.286-.728-.429-1.404-.429-1.456 0-3.341.624-5.655 1.872l-.468-.312-.82-4.797a16.867 16.867 0 013.94-1.443 18.932 18.932 0 014.29-.507zm-1.677 11.154c-.364.052-.637.195-.819.429-.156.208-.234.533-.234.975 0 1.04.481 1.56 1.443 1.56.624 0 1.235-.208 1.833-.624v-2.652l-2.223.312zm23.358 7.722l.39-10.296c0-1.586-.611-2.379-1.833-2.379-.598 0-1.209.182-1.833.546v3.939l.312 8.19h-7.605l.351-7.41-.273-10.569 7.215-.507v2.73h.273c1.352-1.352 2.873-2.314 4.563-2.886 1.95 0 3.432.442 4.446 1.326 1.04.884 1.534 2.158 1.482 3.822l-.156 5.304.273 8.19h-7.605zm24.958-10.257c1.222 2.496 2.873 5.499 4.953 9.009l-.039.78c-1.69.338-4.069.65-7.137.936l-.78-.39a60.478 60.478 0 01-3.9-8.697v.429l.312 8.19h-7.605l.351-7.41-.273-19.461 7.566-.507-.312 16.692 2.964-5.538.819-2.184h7.761l-4.68 8.151z" fill="#2C1E25"/><g clip-path="url(#clip0)"><path d="M48.926 101.115l6.896-7.903 6.288-4.953 4.675 2.381 7.898 2.618 6.642 5.302 6.113 7.147.609.867 2.238 2.457 3.12 3.136 1.446 1.684.333.87-.549.283 29.774 31.149 3.054 1.526.478 1.467 1.668.991 7.099 5.02 4.671 2.013 2.7 2.636 2.226 5.263-.474 2.627-14.585 14.944-6.118.028-5.102-7.252-5.951-8.99-1.541-1.867-1.052.519-1.884-3.657-32.086-28.407-.635.744-6.188-5.767-2.18-1.491-.548.374-.424-.868-10.559-9.578-4.105-8.46-3.947-6.853z" fill="#FFF1F0"/><path d="M67.537 126.005l6.202-8.218 8.36-8.565 5.563-4.024.553.085-.22.785-6.61 4.91-8.04 8.424-4.924 7.466-.503.236-.381-1.099zM90.286 109.031l1.612.21 1.022.816.206 1.745-6.604 5.463-3.864 3.773-5.129 5.72-3.117 4.684-1.748.021-1.257-1.226.028-1.519 5.073-6.501 3.995-4.373 5.276-4.94 4.507-3.873zM81.356 127.493l10.2 10.318 3.563 1.751 4.125-1.246 1.636-1.676.459-3.824-1.287-3.71-10.84-10.035-7.856 8.422z" fill="#2C1E25"/><path d="M83.1 127.196l2.198 2.963 6.681-6.659-2.927-2.402-5.952 6.098z" fill="#FFF1F0"/></g><g clip-path="url(#clip1)"><path d="M119.865 80.826l9.137 5.152 6.123 5.154-1.384 5.06-.964 8.265-3.846 7.579-5.762 7.434-.725.771-1.952 2.69-2.44 3.69-1.356 1.758-.785.502-.388-.48-24.471 35.466-.877 3.3-1.339.765-.633 1.834-3.478 7.969-1.025 4.982-2.034 3.178-4.703 3.246-2.669.068-17.588-11.255-1.267-5.986 6.068-6.465 7.598-7.649 1.516-1.887-.72-.925 3.199-2.586 21.318-37.175-.857-.471 4.394-7.228 1.019-2.437-.478-.461.765-.591 7.24-12.28 7.453-5.734 5.911-5.253z" fill="#FFF1F0"/><path d="M99.26 104.093l9.304 4.409 10.082 6.451 5.067 4.633.028.559-.813-.057-6.147-5.479-9.878-6.166-8.309-3.309-.333-.445 1-.596zM120.492 122.931l.12 1.621-.591 1.166-1.668.555-6.687-5.36-4.477-3.02-6.641-3.864-5.218-2.103-.375-1.708.947-1.479 1.492-.281 7.395 3.651 5.091 3.027 5.906 4.165 4.706 3.63zM100.602 117.926l-8.038 12.078-.992 3.844 2.055 3.787 1.973 1.262 3.838-.324 3.372-2.012 7.631-12.648-9.839-5.987z" fill="#2C1E25"/><path d="M101.247 119.574l-2.457 2.753 7.875 5.193 1.76-3.353-7.178-4.593z" fill="#FFF1F0"/></g><path d="M4.945 199.863l193.259-13.591v11.574L5.257 211.084l-.312-11.221z" fill="#2E5A9C"/><path d="M18.402 198.913l-13.488.949.16 11.237 14.059-.964-.73-11.222z" fill="#3F7AD3"/><defs><clipPath id="clip0"><path fill="#fff" transform="rotate(-45.697 146.424 -.878)" d="M0 0h29.793v116.439H0z"/></clipPath><clipPath id="clip1"><path fill="#fff" transform="rotate(32.616 -74.528 236.435)" d="M0 0h29.793v116.439H0z"/></clipPath></defs></svg>
